X: 195
T:The Lady On The Island
T:Windwood
M:4/4
F:http://blackrosetheband.googlepages.com/ABCTUNES.ABC May 2009
L:1/8
R:reel
K:Dmaj
dB|:"D"BAFB "A"AFEF|"D"D2FA BAdB|BAFB ~A3B|1 "G"d2fd "A"efdB:|2 "G"d2fd "A"e2(3ABc||
"D"d2fd "G"efge|"D"afdf "A"edBc|"D"d2fd "G"efge|"D"afdf "A"e2(3ABc|
"D"d2fd "G"efge|"D"afdf "A"edBc|"D"defg afbf|"G"afdf "A"efdB||

